X:21197 
T:WE'LL DRINK GOOD HEALTH (hornpipe) 
B:DMI.0955
Z:Nordberg/Black
R:hornpipe
%Q:1/4=150
M:C|
L:1/8
K:D
Ac|dcec dBAF|DEGE DEFG|Adcd BGED|CDEF E2Ac|
d2ec dBAF|DCEC DEFG|Adcd BGEC|D2DC D2:|
FG|ABcd edeg|fdec dcde|fdec dBAF|E2ED E2 Ac|
d2ec dBAF|DCEC DEFG|Adcd BGEC|D2DC D2:|

%%%

